X:1
T:Guadalajara, 77.77 D
T:Guadalajara, 77.77 D
T:Robert Lowry, 1884
T:Public Domain Courtesy of the Cyber Hymnal™
C:Robert Lowry, 1884
Z:Public Domain
Z:Courtesy of the Cyber Hymnal™
%%score 1 ( 2 3 )
L:1/8
Q:1/4=103
M:6/8
K:Ab
V:1 treble 
V:2 bass 
V:3 bass 
V:1
 [Ec]2 [DB] [CA]2 [CE] | [EG]2 [DF] [CE]3 | [EG]2 [EA] [EB]2 [EG] | [EA]2 [Ec] [EB]3 | %4
 [Ec]2 [DB] [CA]2 [DG] | [EA]2 [DF] [CE]3 | [DF]2 [DG] [CA]2 [Ec] | [Ec]2 [DB] [CA]3 | %8
 [EB]2 [EB] [Ec]2 [Ec] | [Ed]2 [Ec] [EB]3 | [Ec]2 [Ec] [Ee]2 [Ec] | [EB]2 [=DA] [EB]3 | %12
 [Ec]2 [=EB] [FA]2 [EG] | [FA]2 [DF] [CE]3 | [DF]2 [EG] [EA]2 [Ec] | [Ec]2 [DB] [CA]3 |] %16
V:2
 [A,,A,]2 [A,,A,] [A,,A,]2 [A,,A,] | [D,A,]2 [D,A,] [A,,A,]3 | [E,B,]2 [E,C] [E,D]2 [D,B,] | %3
 [C,A,]2 [A,,A,] [E,G,]3 | [A,,A,]2 [A,,E,] [A,,E,]2 [B,,E,] | [C,A,]2 [D,A,] [A,,A,]3 | %6
 [D,A,]2 [B,,E,] [A,,E,]2 [A,,A,] | [E,G,]2 [E,G,] [A,,A,]3 | [E,G,]2 [E,G,] [E,A,]2 [E,A,] | %9
 [E,B,]2 [E,A,] [E,G,]3 | A,2 A, [A,C]2 A, | [G,B,]2 [F,B,] [E,G,]3 | %12
 [A,,A,]2 [C,G,] [D,F,]2 [D,B,] | [D,A,]2 [F,A,] A,3 | [D,A,]2 [D,B,] [C,A,]2 [A,,A,] | %15
 [E,G,]2 [E,G,] [A,,A,]3 |] %16
V:3
 x6 | x6 | x6 | x6 | x6 | x6 | x6 | x6 | x6 | x6 | A,2 A, x A, x | x6 | x6 | x3 A,3 | x6 | x6 |] %16

